X: 41751
T: Valse-Clog De Joseph Guilmette
R: waltz
M: 3/4
K: Dmajor
e2|f2 Bc dB|f2 Bc dB|gb bg bg|g2 f3 e|
f2 Bc dB|f2 Bc dB|c4 A2|F3 c de|
f2 Bc dB|f2 Bc dB|gb bg bg|g2 f3 e|
f2 g2 f2|e2 d2 c2|B2 ^AB df|b2 a^g ab||
|:a2 g2 B2|c4 cB|A2 f2 A2|B3A B2|a2 g2 B2|
c2 f2 e2|1 d3 c B2|A2 a^g ab:|2 d2 cd fa|d'2 z2||

